icons/lines/recovery-convert.svg

<svg xmlns="http://www.w3.org/2000/svg" width="24" height="24" viewBox="0 0 24 24" fill="none" stroke="currentColor" stroke-width="2" stroke-linecap="round" stroke-linejoin="round" >
  <path d="M13.35 11.33V14.06C13.35 16.34 12.44 17.25 10.16 17.25H7.44C5.17 17.25 4.25 16.34 4.25 14.06V11.33C4.25 9.05999 5.16 8.14999 7.44 8.14999H10.17C12.44 8.14999 13.35 9.05999 13.35 11.33Z"/>
  <path d="M17.2499 7.43V10.16C17.2499 12.44 16.3399 13.35 14.0599 13.35H13.3499V11.33C13.3499 9.06 12.4399 8.15 10.1599 8.15H8.1499V7.43C8.1499 5.15 9.0599 4.25 11.3399 4.25H14.0699C16.3399 4.25 17.2499 5.16 17.2499 7.43Z"/>
  <path d="M20.75 13.75C20.75 17.62 17.62 20.75 13.75 20.75L14.8 19"/>
  <path d="M0.75 7.75C0.75 3.88 3.88 0.75 7.75 0.75L6.7 2.5"/>
  </svg>

<svg xmlns="http://www.w3.org/2000/svg" width="24" height="24" viewBox="0 0 24 24" fill="none" stroke="currentColor" stroke-width="2" stroke-linecap="round" stroke-linejoin="round">
  <path d="M.75 7.75a7 7 0 0 1 7-7L6.7 2.5" />
  <path d="M10.17 8.15c2.27 0 3.18.91 3.18 3.18v2.73c0 2.28-.91 3.19-3.19 3.19H7.44c-2.27 0-3.19-.91-3.19-3.19v-2.73c0-2.27.91-3.18 3.19-3.18z" />
  <path d="M20.75 13.75a7 7 0 0 1-7 7L14.8 19" />
  <path d="M8.15 8.15v-.72c0-2.28.91-3.18 3.19-3.18h2.73c2.27 0 3.18.91 3.18 3.18v2.73c0 2.28-.91 3.19-3.19 3.19h-.71v-2.02c0-2.27-.91-3.18-3.19-3.18" />
</svg>
